X:1
T: Rose Wood's Dirk
C:J. Scott Skinner
R:Strathspey
Q: 128
K:A
M:4/4
L:1/16
|:E2|AA3 c3A e3A c3A|((3d2e2f2) ((3e2d2c2) ((3B2c2A2) ((3G2F2E2) |AA3 e3A e3A ce3|((3d2e2f2) ((3B2b2a2) ge3 e3E|
AA3 c3A e3A c3A|((3d2e2f2) ((3e2d2c2) ((3B2c2A2) ((3G2F2E2) |((3F2G2A2) ((3G2A2B2) ((3A2B2c2) ((3d2e2f2) |((3e2d2c2) ((3B2c2d2) cA3 A2:|
|:g2|a3A ce3 A3e ce3|((3A2c2e2) a3g ((3f2e2d2) ((3c2d2e2) |f3B df3 B3f df3|((3B2d2f2) b3a ((3g2a2b2) ((3e2f2g2) |
a4 ce3 A3e c3e|((3A2c2e2) a3g ((3f2e2d2) ((3c2d2e2) |((3f2d2f2) ((3e2c2e2) ((3a2g2a2) ((3e2c2A2) |((3E2A2c2) ((3d2B2d2) cA3 A2:|
